X: 130477
T: Maud McQuillan's
C: Bob McQuillan
S: "Treoir"
Z: B.Black
M: 4/4
L: 1/8
R: Reel
K: G
dc | B3 c dcBA | GABG D3 B | c3 d edcB | AGFE D^cd=c |
BABc dcBA | GABG DCB,D | CEGE DFAF | GDBA G2 :|
dc | BGBd g3 f | eccB cBAB | cAce a3 g | fdd^c d=cBc |
BGBd g3 f | ec (3cBc ecge | dBGB cADF | AGGF G2 :|
